lib/svgs/bookkeeping.svg

<svg xmlns="http://www.w3.org/2000/svg" viewBox="0 0 20 20">
    <path fill="#000" fill-rule="evenodd" d="M18,10 C18,5.582 14.418,2 10,2 C5.582,2 2,5.582 2,10 C2,14.418 5.582,18 10,18 C14.418,18 18,14.418 18,10 L18,10 L18,10 L18,10 L18,10 L18,10 Z M3.2,10 C3.2,6.25 6.25,3.2 10,3.2 C13.75,3.2 16.8,6.25 16.8,10 C16.8,13.75 13.75,16.8 10,16.8 C6.25,16.8 3.2,13.75 3.2,10 L3.2,10 L3.2,10 L3.2,10 L3.2,10 L3.2,10 L3.2,10 Z M10.6001,13.5148 L10.6001,7.9338 L12.9091,10.2428 C13.1431,10.4768 13.5231,10.4768 13.7581,10.2428 C13.9921,10.0088 13.9921,9.6288 13.7581,9.3938 L10.4241,6.0608 C10.1901,5.8268 9.8101,5.8268 9.5761,6.0608 L6.2431,9.3938 C6.1261,9.5118 6.0671,9.6648 6.0671,9.8188 C6.0671,9.9718 6.1261,10.1258 6.2431,10.2428 C6.4761,10.4768 6.8571,10.4768 7.0911,10.2428 L9.4001,7.9338 L9.4001,13.5148 C9.4001,13.8468 9.6681,14.1148 10.0001,14.1148 C10.3311,14.1148 10.6001,13.8468 10.6001,13.5148 L10.6001,13.5148 L10.6001,13.5148 L10.6001,13.5148 L10.6001,13.5148 L10.6001,13.5148 Z"/>
</svg>

<svg xmlns="http://www.w3.org/2000/svg" viewBox="0 0 20 20">
    <path fill="#000" fill-rule="evenodd" d="M18 10a8 8 0 1 0-16 0 8 8 0 0 0 16 0M3.2 10c0-3.75 3.05-6.8 6.8-6.8s6.8 3.05 6.8 6.8-3.05 6.8-6.8 6.8-6.8-3.05-6.8-6.8m7.4 3.515V7.934l2.31 2.309a.601.601 0 0 0 .848-.85l-3.334-3.332a.6.6 0 0 0-.848 0L6.243 9.394a.601.601 0 0 0 .848.849l2.31-2.31v5.582a.6.6 0 1 0 1.2 0"/>
</svg>
